X:1
T:Miss Maule's Strathspey
T:Miss Maule's Strathspey
T:Robert Mackintosh
C:Robert Mackintosh
%%score 1 2
L:1/8
M:4/4
K:A
V:1 treble 
V:2 bass 
V:1
 E |"A" c2 A<E"D" F<A"A" E<C |"A" c2 A>E"Bm" F<B"E7" B>d |"A" c>B A<E"D" F<A"A" E<C | %4
"Bm" D<F"E7" E>G"A" A/A/A AE |"A" c2 A<E"D" F<A"A" E<C |"A" c2 A>E"Bm" F<B"E7" B>d | %7
"A" c>B A<E"D" F<A"A" E<C |"Bm" D<F"E7" E>G"A" A/A/A A || e |"A" c<e a<e"D" f>a"E7" e>d | %11
"A" c<e a>c"E7" d<B B>d |"A" c<e a<e"D" f>a"A" e<c |"Bm" d<f"E7" e>d"A" c<A A>e | %14
"A" c<e a>e"D" f<a"E7" e>d |"A" c<e"F#m" a<c"Bm" d<B"E7" Bc/d/ |"A" c<e"Bm" d<f"A" e<a"E" g<b | %17
"D" a<f"E7" e>d"A" c<A A :| %18
V:2
 z | A,,,2 [E,A,C]2 [D,A,]2 [C,A,]2 | A,,,2 [E,A,C]2 [D,,D,]2 [E,,E,]2 | %3
 A,,,2 [E,A,C]2 [D,A,]2 [C,A,]2 | [B,,B,]2 [E,G,D]2 A,,2 [A,C]2 | A,,,2 [E,A,C]2 [D,A,]2 [C,A,]2 | %6
 A,,,2 [E,A,C]2 [D,,D,]2 [E,,E,]2 | A,,,2 [E,A,C]2 [D,A,]2 [C,A,]2 | %8
 [B,,B,]2 [E,G,D]2 A,,2 [A,C] || z | A,,,2 [E,A,C]2 [D,A,]2 [E,D]2 | A,,2 [E,A,C]2 E,,2 [E,G,D]2 | %12
 A,,,2 [E,A,C]2 [D,A,]2 [C,A,]2 | [B,,B,]2 [E,D]2 A,,2 [A,C]2 | A,,,2 [E,A,C]2 [D,A,]2 [C,A,]2 | %15
 A,,2 [F,A,C]2 [D,F,B,]2 [E,G,D]2 | [A,,A,]2 [B,,B,]2 [C,C]2 [E,E]2 | [F,D]2 [G,E]2 [A,CE]2 A,, :| %18

